lib/img/icons/ui/mobile.svg

<?xml version="1.0" encoding="utf-8"?>
<!-- Generated by IcoMoon.io -->
<!DOCTYPE svg PUBLIC "-//W3C//DTD SVG 1.1//EN" "http://www.w3.org/Graphics/SVG/1.1/DTD/svg11.dtd">
<svg version="1.1" xmlns="http://www.w3.org/2000/svg" xmlns:xlink="http://www.w3.org/1999/xlink" width="32" height="32" viewBox="0 0 32 32">
<path fill="rgb(0, 0, 0)" d="M22 0h-13.967c-1.123 0-2.033 0.944-2.033 2.11v27.783c0 1.163 0.911 2.108 2.033 2.108h13.967c1.122 0 2-0.944 2-2.108v-27.783c0-1.166-0.878-2.11-2-2.11zM15 30.695c-0.937 0-1.694-0.759-1.694-1.696s0.758-1.694 1.694-1.694c0.934 0 1.695 0.757 1.695 1.694s-0.76 1.696-1.695 1.696zM22 26h-14v-22h14v22z"></path>
</svg>

<svg xmlns="http://www.w3.org/2000/svg" width="32" height="32" viewBox="0 0 32 32" class="svg-icon">
    <path d="M22 0H8.033C6.91 0 6 .944 6 2.11v27.783c0 1.163.911 2.108 2.033 2.108H22c1.122 0 2-.944 2-2.108V2.11C24 .944 23.122 0 22 0zm-7 30.695c-.937 0-1.694-.759-1.694-1.696s.758-1.694 1.694-1.694a1.695 1.695 0 1 1 0 3.39zM22 26H8V4h14v22z"/>
</svg>
